X:116
T:March in the Royal Guards
O:No 116 Wm Clarke of Feltwell MS  1858
N:Key sig in MS is Gmaj but tune is in C
N:4 sqr
N:Bar 12: rest added
N:bar 15: sq
N:Bar 25 cr    Fine added
I:abc2nwc
M:4/4
L:1/8
K:C
c2c3/2c/2 BcdB|cd/2e/2 f/2g/2a/2b/2 c'bc'b|c'2e3/2e/2 f3/2f/2 f3/2f/2|g2g3/2g/2 g2"^*"z2|
gf d3G Bd|ce g3c' ge|g/2f/2e/2f/2 d3G Bd|cd/2e/2 f/2g/2a/2b/2 c'4|
a4d'2c'3/2c'/2|b3/2g/2 b3/2d'/2 c'2g3/2e/2|f2{gfe}b3/2f/2 e2{fed}g3/2e/2|d2d3/2d/2 d2"^*"z2:|
|:G2G3/2G/2 FG AF|G2G3/2G/2 A3/2c/2 B3/2d/2|c3{dcBc"^*"}d e2e2|e2d3/2d/2 d2z2|
d3c .B.c.d.e|.f.e.d.c .B.A.G.F|E2G3/2G/2 F3/2F/2 E3/2E/2|
D2g3/2g/2 a3/2a/2 b3/2b/2|c'2c'3/2c'/2 b3/2c'/2d'3/2b/2|c'b/2a/2 (g/2f/2e/2d/2) cgfe|
.d(d/2e/2) .f.d|.B(g/2a/2) .b.g|.c'c'/2c'/2"^*"c'4z2!FINE!:|
|:g4ec'bc'|abc'a g2e3/2g/2|f2f2e2e2|d2z2g2z2|
{fged|}g4ec'bc'|abc'a g2e3/2g/2|f2d3/2f/2 e2d2|c2c3/2c/2 c2z2|]

